img/icons/reward/Udemi.svg

<svg width="32" height="60" viewBox="0 0 32 60" fill="none" xmlns="http://www.w3.org/2000/svg">
<path d="M16 0L0.525024 8.9325V17.8675L15.9975 8.9325L31.475 17.8675V8.9325L16 0ZM0.525024 25.37V45.73C0.525024 50.355 1.99752 53.8375 4.87752 56.315C7.75752 58.7925 11.4425 60 15.9325 60C20.4225 60 24.105 58.795 27.0525 56.315C30 53.8375 31.4725 50.2175 31.4725 45.53V25.37H23.3675V44.995C23.3675 50.085 19.595 52.6325 15.9975 52.6325C12.4275 52.6325 8.63002 50.155 8.63002 45.065V25.37H0.525024Z" fill="#D6BD96"/>
</svg>

<svg width="32" height="60" fill="none" xmlns="http://www.w3.org/2000/svg"><path d="M16 0 .525 8.932v8.935l15.473-8.935 15.477 8.935V8.932L16 0ZM.525 25.37v20.36c0 4.625 1.473 8.108 4.353 10.585C7.758 58.792 11.443 60 15.933 60c4.49 0 8.172-1.205 11.12-3.685 2.947-2.477 4.42-6.097 4.42-10.785V25.37h-8.105v19.625c0 5.09-3.773 7.638-7.37 7.638-3.57 0-7.368-2.478-7.368-7.568V25.37H.525Z" fill="#D6BD96"/></svg>
